!!!!SEGMENT: pl-kk--kk-i-7--061_asola-giovanni-matteo--ave-sanctissima-maria.krn
!!!cenid: 16xx:900
!!!COM: Asola, Giovanni Matteo
!!!COM-rismID: pe20000387
!!!CDT: <=1532-1609/10/01
!!!CNT: Italian
!!!OTL: Ave Sanctissima Maria
!!!PDT:
!!!AGN: Sacred
!!!YEC: Copyright 2022 Narodowy Instytut Fryderyka Chopina (https://polishscores.org)
!!!YEM: License CC-BY-4.0 (https://creativecommons.org/licenses/by/4.0)
!!!SMS-siglum: PL-Kk
!!!SMS-shelfmark: Kk.I.7
!!!SMS-shelfwork: 061 W
!!!SMS-variant:
!!!SMS-altvar:
!!!NIFC-rismSourceID: 300258077
!!!NIFC-rismChildID: 300258138
!!!NIFC-islandoraID: pl-kk:1956
!!!URL-pdf-islandora: https://repozytorium.nifc.pl/islandora/object/pl-kk%3A1956/datastream/PDF/view
!!!URL-scan: https://polish.musicsources.pl/pl/lokalizacje/galeria/rekopisy/6140 @EN{Scan on Polish Music Sources Website} @PL{Skany w portalu Dziedzictwo Muzyki Polskiej w otwartym dostępie}
!!!IIIF: https://repozytorium.nifc.pl/islandora/object/pl-kk%3A1956/datastream/IIIF/view
!!!ONB-nifc: UWAGA: C (skan 0059-0060, s.111-112), A (0146, s.112-113), T (0222-0223, s.107-108), B (0309-0310, s.105-106). Następny utwór: Tradent enim vos in conciliis
!!!AIN: 1 alto 1 bass 2 tenor
!!!key: D:mix
!!!finalis: g
**kern	**text	**mod-text	**kern	**text	**mod-text	**kern	**text	**mod-text	**kern	**text	**mod-text
*part4	*part4	*part4	*part3	*part3	*part3	*part2	*part2	*part2	*part1	*part1	*part1
*staff4	*staff4	*staff4	*staff3	*staff3	*staff3	*staff2	*staff2	*staff2	*staff1	*staff1	*staff1
*I"BASSVS.	*	*	*I"TENOR.	*	*	*I"ALTVS.	*	*	*I"CANTVS.	*	*
*mI"Basso	*	*	*mI"Tenore II	*	*	*mI"Tenore I	*	*	*mI"Alto	*	*
*I'B	*	*	*I'T	*	*	*I'A	*	*	*I'S	*	*
*	*	*	*mI'T 2	*	*	*mI'T 1	*	*	*mI'A	*	*
*Ibass	*	*	*Itenor	*	*	*Itenor	*	*	*Ialto	*	*
*ICvox	*	*	*ICvox	*	*	*ICvox	*	*	*ICvox	*	*
*clefF4	*	*	*clefC4	*	*	*clefC4	*	*	*clefC3	*	*
*	*	*	*mclefGv2	*	*	*mclefGv2	*	*	*mclefG2	*	*
*k[b-]	*	*	*k[b-]	*	*	*k[b-]	*	*	*k[b-]	*	*
*D:mix	*	*	*D:mix	*	*	*D:mix	*	*	*D:mix	*	*
*M2/1	*	*	*M2/1	*	*	*M2/1	*	*	*M2/1	*	*
*met(C|)	*	*	*met(C|)	*	*	*met(C|)	*	*	*met(C|)	*	*
*mmet(c|)	*	*	*mmet(c|)	*	*	*mmet(c|)	*	*	*mmet(c|)	*	*
=1-	=1-	=1-	=1-	=1-	=1-	=1-	=1-	=1-	=1-	=1-	=1-
*xywh-#309:7340,3506,6110,1347	*	*	*xywh-#222:7115,3524,6250,1443	*	*	*xywh-#146:1379,485,6092,992	*	*	*xywh-#59:7153,3486,6389,1255	*	*
!!LO:TX:t=P:global:problem=all\right
!LO:TX:t=P:problem=kreska pseudotaktowa	!	!	!	!	!	!	!	!	!LO:TX:t=P:global:problem=oddech/cezura na różnej wysokości	!	!
1r	.	.	00r	.	.	1G	A-	A-	00r	.	.
1G	A-	A-	.	.	.	1.B-	-ue	-ve	.	.	.
=2-	=2-	=2-	=2-	=2-	=2-	=2-	=2-	=2-	=2-	=2-	=2-
*2\right	*	*	*2\right	*	*	*2\right	*	*	*2\right	*	*
2G\	-ue	-ve	.	.	.	.	.	.	.	.	.
!LO:TX:t=P:problem=kreska pseudotaktowa	!	!	!	!	!	!LO:TX:t=P:problem=kreska pseudotaktowa	!	!	!	!	!
2F\	Sanc-	sanc-	.	.	.	2A/	Sanc-	sanc-	.	.	.
2G\	-tiſ-	-tiſ-	.	.	.	2B-\	-tiſ-	-tiſ-	.	.	.
2E-X\	-si-	-si-	.	.	.	2c\	-si-	-si-	.	.	.
=3-	=3-	=3-	=3-	=3-	=3-	=3-	=3-	=3-	=3-	=3-	=3-
!	!	!	!	!	!	!	!	!	!LO:TX:t=P:problem=kreska pseudotaktowa	!	!
2D/	-ma	-ma	0r	.	.	1d	-ma	-ma	1r	.	.
!LO:TX:t=P:problem=kreska pseudotaktowa	!	!	!	!	!	!	!	!	!	!	!
2D/	Ma-	Ma-	.	.	.	.	.	.	.	.	.
!	!	!	!	!	!	!LO:TX:t=P:problem=kreska pseudotaktowa	!	!	!	!	!
2.E-X\	-ri-	-ri-	.	.	.	1B-	Ma-	Ma-	0G	A-	A-
4D/	.	.	.	.	.	.	.	.	.	.	.
=4-	=4-	=4-	=4-	=4-	=4-	=4-	=4-	=4-	=4-	=4-	=4-
!	!	!	!LO:TX:t=P:problem=kreska pseudotaktowa	!	!	!	!	!	!	!	!
1C	.	.	1r	.	.	1c	-ri-	-ri-	.	.	.
!LO:TX:t=P:problem=kreska pseudotaktowa	!	!	!	!	!	!LO:TX:t=P:problem=kreska pseudotaktowa	!	!	!	!	!
1GG,<	-a	-a	1G	A-	A-	0d	-a	-a	1.B-	-ue	-ve
=5-	=5-	=5-	=5-	=5-	=5-	=5-	=5-	=5-	=5-	=5-	=5-
*	*ij	*ij	*	*	*	*	*	*	*	*	*
1D	A-	a-	2G/	-ue	-ve	.	.	.	.	.	.
!	!	!	!	!	!	!	!	!	!LO:TX:t=P:problem=kreska pseudotaktowa	!	!
.	.	.	2F/	Sanc-	sanc-	.	.	.	2A/	Sanc-	sanc-
2GG/	-ue	-ve	2G/	-tiſ-	-tiſ-	2r	.	.	2B-/	.	-tiſ-
!	!	!	!LO:SIC:v:o=2E/	!	!	!	!	!	!	!	!
2AA/	Sanc-	sanc-	2E-i	-si-	-si-	2A/	Sanc-	sanc-	2c/	-tiſ-	-si-
=6-	=6-	=6-	=6-	=6-	=6-	=6-	=6-	=6-	=6-	=6-	=6-
2BB-/	-tiſ-	-tiſ-	2D,</	-ma	-ma	2F/	-tiſ-	-tiſ-	1.d	-si-	-ma
!LO:TX:t=P:problem=kreska pseudotaktowa	!	!	!	!	!	!LO:TX:t=P:problem=kreska pseudotaktowa	!	!	!	!	!
2GG/	-si-	-si-	1G	Ma-	Ma-	2B-\	-si-	-si-	.	.	.
1D	-ma	-ma	.	.	.	2A/	-ma	-ma	.	.	.
!	!	!	!	!	!	!	!	!	!LO:TX:t=P:problem=kreska pseudotaktowa	!	!
!	!	!	!LO:TX:t=P:problem=kreska pseudotaktowa	!	!	!	!	!	!	!	!
.	.	.	2F/	.	.	2.B-\	Ma-	Ma-	2d\	-ma	Ma-
=7-	=7-	=7-	=7-	=7-	=7-	=7-	=7-	=7-	=7-	=7-	=7-
*	*	*	*lig	*	*	*	*	*	*	*	*
1E-X	Ma-	Ma-	1G	-ri-	-ri-	.	.	.	2B-/	Ma-	-ri-
.	.	.	.	.	.	4A/	.	.	.	.	.
.	.	.	.	.	.	1G	.	.	2c/	-ri-	.
!	!	!	!	!	!	!	!	!	!LO:TX:t=P:problem=kreska pseudotaktowa	!	!
1D	-ri-	-ri-	1A	.	.	.	.	.	1d	-a	-a
!	!	!	!	!	!	!LO:SIC:v:o=2F/	!	!	!	!	!
!	!	!	!	!	!	!LO:TX:t=P:problem=kreska pseudotaktowa	!	!	!	!	!
.	.	.	.	.	.	2F#i	-ri-	-ri-	.	.	.
*	*	*	*Xlig	*	*	*	*	*	*	*	*
=8-	=8-	=8-	=8-	=8-	=8-	=8-	=8-	=8-	=8-	=8-	=8-
!LO:TX:t=P:problem=kreska pseudotaktowa	!	!	!LO:TX:t=P:problem=kreska pseudotaktowa	!	!	!	!	!	!	!	!
1GG	-a	-a	0G	-a	-a	2G,</	-a	-a	2r	.	.
*	*Xij	*Xij	*	*	*	*	*	*	*	*	*
.	.	.	.	.	.	1B-	Ma-	ma-	1d	Ma-	ma-
2r	.	.	.	.	.	.	.	.	.	.	.
!	!	!	!	!	!	!LO:TX:t=P:problem=kreska pseudotaktowa	!	!	!	!	!
1G\	Ma-	ma-	.	.	.	2B-\	-ter	-ter	2d\	-ter	-ter
=9-	=9-	=9-	=9-	=9-	=9-	=9-	=9-	=9-	=9-	=9-	=9-
*	*	*	*	*	*	*lig	*	*	*lig	*	*
.	.	.	2r	.	.	1B-	De-	De-	1d	De-	De-
!LO:TX:t=P:problem=kreska pseudotaktowa	!	!	!	!	!	!	!	!	!	!	!
2G\	-ter	-ter	1G	Ma-	ma-	.	.	.	.	.	.
*lig	*	*	*	*	*	*col	*	*	*	*	*
1C	De-	De-	.	.	.	2.c\	.	.	1e-X	.	.
!	!	!	!LO:TX:t=P:problem=kreska pseudotaktowa	!	!	!	!	!	!	!	!
.	.	.	2G/	-ter	-ter	.	.	.	.	.	.
*	*	*	*	*	*	*Xcol	*	*	*	*	*
*	*	*	*	*	*	*Xlig	*	*	*Xlig	*	*
!	!	!	!	!	!	!LO:TX:t=P:problem=kreska pseudotaktowa	!	!	!	!	!
.	.	.	.	.	.	4B-\	.	.	.	.	.
=10-	=10-	=10-	=10-	=10-	=10-	=10-	=10-	=10-	=10-	=10-	=10-
*	*	*	*lig	*	*	*	*	*	*	*	*
!LO:TX:t=P:problem=kreska pseudotaktowa	!	!	!	!	!	!	!	!	!LO:TX:t=P:problem=kreska pseudotaktowa	!	!
1D	.	.	1F#X	De-	De-	4A/	.	.	0d	-i	-i
.	.	.	.	.	.	4G/	.	.	.	.	.
!	!	!	!	!	!	!LO:TX:t=P:problem=kreska pseudotaktowa	!	!	!	!	!
.	.	.	.	.	.	2A/	.	.	.	.	.
*Xlig	*	*	*	*	*	*	*	*	*	*	*
*custos:GG	*	*	*	*	*	*custos:B	*	*	*	*	*
*xywh-#310:1204,477,6082,1012	*	*	*	*	*	*xywh-#146:1369,1126,6072,1022	*	*	*	*	*
!LO:PB:g=original	!	!	!	!	!	!LO:LB:g=original	!	!	!	!	!
2GG,</	-i,	-i	1G	.	.	1B-	.	.	.	.	.
!LO:TX:t=P:problem=kreska pseudotaktowa	!	!	!	!	!	!	!	!	!	!	!
2G\	Re-	Re-	.	.	.	.	.	.	.	.	.
*	*	*	*Xlig	*	*	*	*	*	*	*	*
=11-	=11-	=11-	=11-	=11-	=11-	=11-	=11-	=11-	=11-	=11-	=11-
!	!	!	!LO:TX:t=P:problem=kreska pseudotaktowa	!	!	!LO:TX:t=P:problem=kreska pseudotaktowa	!	!	!	!	!
2G\	-gi-	-gi-	1D	-i	-i	1A	-i	-i	2r	.	.
*	*	*	*	*	*	*	*	*	*	*ij	*ij
2F\	-na	-na	.	.	.	.	.	.	1d	Ma-	ma-
*lig	*	*	*	*	*	*	*	*	*	*	*
1B-	cae-	cae-	0r	.	.	2r	.	.	.	.	.
!	!	!	!	!	!	!	!	!	!LO:TX:t=P:problem=kreska pseudotaktowa	!	!
.	.	.	.	.	.	2G/	Re-	Re-	2d\	-ter	-ter
=12-	=12-	=12-	=12-	=12-	=12-	=12-	=12-	=12-	=12-	=12-	=12-
1A	.	.	.	.	.	2G/	-gi-	-gi-	0d	De-	De-
!	!	!	!	!	!	!LO:TX:t=P:problem=kreska pseudotaktowa	!	!	!	!	!
.	.	.	.	.	.	2F/	-na	-na	.	.	.
*Xlig	*	*	*	*	*	*lig	*	*	*	*	*
2G\	-li	-li	2r	.	.	1B-	cae-	cae-	.	.	.
*	*ij	*ij	*	*	*	*	*	*	*	*	*
!LO:TX:t=P:problem=kreska pseudotaktowa	!	!	!LO:TX:t=P:problem=kreska pseudotaktowa	!	!	!	!	!	!	!	!
2GG/	Re-	Re-	2G/	Re-	Re-	.	.	.	.	.	.
=13-	=13-	=13-	=13-	=13-	=13-	=13-	=13-	=13-	=13-	=13-	=13-
!	!	!	!	!	!	!	!	!	!LO:TX:t=P:problem=kreska pseudotaktowa	!	!
2.D/	-gi-	-gi-	2G/	-gi-	-gi-	1A	.	.	0d	-i	-i
*	*	*	*	*	*	*	*	*	*	*Xij	*Xij
.	.	.	2Fny/	-na	-na	.	.	.	.	.	.
4C/	-na	.	.	.	.	.	.	.	.	.	.
*	*	*	*lig	*	*	*Xlig	*	*	*	*	*
!	!	!	!	!	!	!LO:TX:t=P:problem=kreska pseudotaktowa	!	!	!	!	!
2BB-/	cae-	.	1B-	cae-	cae-	1G	-li	-li	.	.	.
2GG/	.	-na	.	.	.	.	.	.	.	.	.
=14-	=14-	=14-	=14-	=14-	=14-	=14-	=14-	=14-	=14-	=14-	=14-
*lig	*	*	*	*	*	*	*ij	*ij	*	*	*
1D	.	cae-	1A	.	.	2r	.	.	2r	.	.
.	.	.	.	.	.	2F/	Re-	Re-	2d\	Re-	Re-
*	*	*	*Xlig	*	*	*	*	*	*	*	*
!	!	!	!LO:TX:t=P:problem=kreska pseudotaktowa	!	!	!	!	!	!	!	!
1E-X	.	.	1G	-li	-li	2G/	-gi-	-gi-	2d\	-gi-	-gi-
!	!	!	!	!	!	!LO:TX:t=P:problem=kreska pseudotaktowa	!	!	!LO:TX:t=P:problem=kreska pseudotaktowa	!	!
.	.	.	.	.	.	2G/	-na	-na	2c/	-na	-na
*Xlig	*	*	*	*	*	*	*	*	*	*	*
=15-	=15-	=15-	=15-	=15-	=15-	=15-	=15-	=15-	=15-	=15-	=15-
!LO:TX:t=P:problem=kreska pseudotaktowa	!	!	!	!	!	!	!	!	!	!	!
*	*	*	*	*	*	*	*	*	*lig	*	*
1D	-li	-li	2r	.	.	2A/	cae-	cae-	1f	cae-	cae-
*	*Xij	*Xij	*	*	*	*	*	*	*	*	*
.	.	.	2D/	Re-	Re-	1d	.	.	.	.	.
!	!	!	!	!	!	!	!	!	!LO:TX:t=P:problem=kreska pseudotaktowa	!	!
1r	.	.	2A/	-gi-	-gi-	.	.	.	1eny	.	.
!	!	!	!LO:TX:t=P:problem=kreska pseudotaktowa	!	!	!	!	!	!	!	!
.	.	.	2A/	-na	-na	2c\	.	.	.	.	.
*	*	*	*	*	*	*	*	*	*Xlig	*	*
*	*	*	*custos:B	*	*	*	*	*	*custos:d	*	*
!	!	!	!LO:PB:g=original	!	!	!	!	!	!LO:PB:g=original	!	!
=16-	=16-	=16-	=16-	=16-	=16-	=16-	=16-	=16-	=16-	=16-	=16-
*	*	*	*xywh-#223:1122,548,6072,926	*	*	*	*	*	*xywh-#60:1032,594,6242,924	*	*
!	!	!	!LO:TX:t=P:problem=kreska pseudotaktowa	!	!	!LO:TX:t=P:problem=kreska pseudotaktowa	!	!	!LO:TX:t=P:problem=kreska pseudotaktowa	!	!
2r	.	.	1B-	cae-	cae-	1d	-li	-li	0d	-li	-li
*	*	*	*	*	*	*	*Xij	*Xij	*	*	*
1G	Por-	por-	.	.	.	.	.	.	.	.	.
.	.	.	2A/	-li,	-li	2r	.	.	.	.	.
!LO:TX:t=P:problem=kreska pseudotaktowa	!	!	!	!	!	!LO:TX:t=P:problem=kreska pseudotaktowa	!	!	!	!	!
2F\	-ta	-ta	2.d\	Por-	por-	2A/	Por-	por-	.	.	.
=17-	=17-	=17-	=17-	=17-	=17-	=17-	=17-	=17-	=17-	=17-	=17-
2G\	pa-	pa-	.	.	.	2B-\	-ta	-ta	1r	.	.
.	.	.	4c\	.	.	.	.	.	.	.	.
2G\	-ra-	-ra-	4B-\	.	.	1d	Pa-	pa-	.	.	.
!	!	!	!LO:TX:t=P:problem=kreska pseudotaktowa	!	!	!	!	!	!	!	!
.	.	.	4A/	.	.	.	.	.	.	.	.
!LO:SIC:v:o=1Eny	!	!	!	!	!	!	!	!	!	!	!
1E-i	-dy-	-di-	2G/	-ta	.	.	.	.	2r	.	.
!	!	!	!LO:TX:t=P:problem=kreska pseudotaktowa	!	!	!LO:TX:t=P:problem=kreska pseudotaktowa	!	!	!	!	!
.	.	.	2G/	.	-ta	2c\	-ra-	-ra-	1g\	Por-	por-
=18-	=18-	=18-	=18-	=18-	=18-	=18-	=18-	=18-	=18-	=18-	=18-
!LO:TX:t=P:problem=kreska pseudotaktowa	!	!	!	!	!	!	!	!	!	!	!
1D	-si	-si	2A/	pa-	pa-	1d	-dy-	-di-	.	.	.
!	!	!	!	!	!	!	!	!	!LO:SIC:v:o=2f\	!	!
!	!	!	!	!	!	!	!	!	!LO:TX:t=P:problem=kreska pseudotaktowa	!	!
.	.	.	2A/	-ra-	-ra-	.	.	.	2f#i	-ta	-ta
!	!	!	!	!	!	!LO:TX:t=P:problem=kreska pseudotaktowa	!	!	!	!	!
1r	.	.	4B-\	-dy-	-di-	1G	-si	-si	2g\	pa-	pa-
.	.	.	4c\	.	.	.	.	.	.	.	.
.	.	.	1d\	.	.	.	.	.	2g\	-ra-	-ra-
=19-	=19-	=19-	=19-	=19-	=19-	=19-	=19-	=19-	=19-	=19-	=19-
*	*	*	*	*	*	*lig	*	*	*	*	*
1AA	Do-	Do-	.	.	.	1A	Do-	Do-	1e	-dy-	-di-
!	!	!	!LO:SIC:v:o=2c\	!	!	!	!	!	!	!	!
!	!	!	!LO:TX:t=P:problem=kreska pseudotaktowa	!	!	!	!	!	!	!	!
.	.	.	2c#i	.	.	.	.	.	.	.	.
!	!	!	!	!	!	!	!	!	!LO:TX:t=P:problem=kreska pseudotaktowa	!	!
2D/	-mi-	-mi-	2d,<\	-si	-si	1.d	.	.	1d	-si	-si
!LO:TX:t=P:problem=kreska pseudotaktowa	!	!	!	!	!	!	!	!	!	!	!
2D/	-na	-na	1B-\	Do-	Do-	.	.	.	.	.	.
=20-	=20-	=20-	=20-	=20-	=20-	=20-	=20-	=20-	=20-	=20-	=20-
1E-X	mun-	mun-	.	.	.	.	.	.	1r	.	.
*	*	*	*	*	*	*Xlig	*	*	*	*	*
!	!	!	!LO:TX:t=P:problem=kreska pseudotaktowa	!	!	!LO:TX:t=P:problem=kreska pseudotaktowa	!	!	!	!	!
.	.	.	2G/	-mi-	-mi-	2c\	-mi-	-mi-	.	.	.
2D/	-di,	-di	2A/	-na	-na	0d	-na	-na	1.f	Do-	Do-
*	*ij	*ij	*	*	*	*	*	*	*	*	*
*custos:BB	*	*	*	*	*	*	*	*	*	*	*
*xywh-#310:1135,1013,6181,1051	*	*	*	*	*	*	*	*	*	*	*
!LO:LB:g=original	!	!	!	!	!	!	!	!	!	!	!
1BB-/	Do-	Do-	2.B-\	mun-	mun-	.	.	.	.	.	.
.	.	.	.	.	.	.	.	.	.	.	.
=21-	=21-	=21-	=21-	=21-	=21-	=21-	=21-	=21-	=21-	=21-	=21-
.	.	.	.	.	.	.	.	.	.	.	.
.	.	.	4A/	.	.	.	.	.	.	.	.
!LO:TX:t=P:problem=kreska pseudotaktowa	!	!	!	!	!	!	!	!	!	!	!
2BB-/	-mi-	-mi-	4F/	.	.	.	.	.	2f\	-mi-	-mi-
!	!	!	!LO:TX:t=P:problem=kreska pseudotaktowa	!	!	!	!	!	!	!	!
.	.	.	4G/	.	.	.	.	.	.	.	.
!	!	!	!	!	!	!	!	!	!LO:SIC:v:o=1e	!	!
!	!	!	!	!	!	!	!	!	!LO:TX:t=P:problem=kreska pseudotaktowa	!	!
1C	-na	-na	4A/	.	.	2.c\	mun-	mun-	1e-i	-na	-na
.	.	.	4G/	.	.	.	.	.	.	.	.
.	.	.	1G/	.	.	.	.	.	.	.	.
.	.	.	.	.	.	4B-\	.	.	.	.	.
=22-	=22-	=22-	=22-	=22-	=22-	=22-	=22-	=22-	=22-	=22-	=22-
!	!	!	!	!	!	!LO:TX:t=P:problem=kreska pseudotaktowa	!	!	!	!	!
1D	mun-	mun-	.	.	.	1A	.	.	1d	mun-	mun-
.	.	.	2F#X/	.	.	.	.	.	.	.	.
*	*	*	*	*	*	*custos:B	*	*	*	*	*
*	*	*	*	*	*	*xywh-#146:1499,1778,5952,1162	*	*	*	*	*
!LO:TX:t=P:problem=kreska pseudotaktowa	!	!	!LO:TX:t=P:problem=kreska pseudotaktowa	!	!	!	!	!	!LO:TX:t=P:problem=kreska pseudotaktowa	!	!
!	!	!	!	!	!	!LO:LB:g=original	!	!	!	!	!
1GG,<	-di,	-di	1G	-di	-di	2.B-\	.	-di	1d	-di	-di
*	*Xij	*Xij	*	*	*	*	*	*	*	*	*
.	.	.	.	.	.	4c\	.	.	.	.	.
=23-	=23-	=23-	=23-	=23-	=23-	=23-	=23-	=23-	=23-	=23-	=23-
*lig	*	*	*	*	*	*	*	*	*	*	*
!	!	!	!	!	!	!LO:TX:t=P:problem=kreska pseudotaktowa	!	!	!	!	!
1G	Pu-	pu-	1r	.	.	1d	-di	.	2r	.	.
*	*	*	*	*	*	*	*	*	*lig	*	*
.	.	.	.	.	.	.	.	.	1d	Pu-	pu-
1.B-	.	.	1.d	Pu-	pu-	00r	.	.	.	.	.
.	.	.	.	.	.	.	.	.	1f\	.	.
=24-	=24-	=24-	=24-	=24-	=24-	=24-	=24-	=24-	=24-	=24-	=24-
.	.	.	.	.	.	.	.	.	.	.	.
*Xlig	*	*	*	*	*	*	*	*	*Xlig	*	*
!	!	!	!LO:TX:t=P:problem=kreska pseudotaktowa	!	!	!	!	!	!LO:TX:t=P:problem=kreska pseudotaktowa	!	!
2A\	-ra	-ra	2c\	-ra	-ra	.	.	.	2f\	-ra	-ra
!	!	!	!	!	!	!	!	!	!LO:SIC:v:o=2e\	!	!
2G\	ſin-	ſin-	2B-\	ſin-	ſin-	.	.	.	2e-i	Sin-	sin-
2F\	-gu-	-gu-	2A/	-gu-	-gu-	.	.	.	4d\	.	-gu-
.	.	.	.	.	.	.	.	.	2d\	-gu-	-la-
*	*	*	*custos:G	*	*	*	*	*	*	*	*
!	!	!	!LO:LB:g=original	!	!	!	!	!	!	!	!
=25-	=25-	=25-	=25-	=25-	=25-	=25-	=25-	=25-	=25-	=25-	=25-
*	*	*	*xywh-#223:1081,1204,6165,926	*	*	*	*	*	*	*	*
1E-X	-la-	-la-	1G	-la-	-la-	.	.	.	.	.	.
.	.	.	.	.	.	.	.	.	8c/L	.	.
.	.	.	.	.	.	.	.	.	8B-/J	.	.
!	!	!	!	!	!	!	!	!	!LO:TX:t=P:problem=kreska pseudotaktowa	!	!
.	.	.	.	.	.	.	.	.	2c/	-la-	.
!LO:TX:t=P:problem=kreska pseudotaktowa	!	!	!	!	!	!	!	!	!LO:TX:t=P:problem=kreska pseudotaktowa	!	!
1D	-ris	-ris	2A,</	-ris	-ris	2r	.	.	1d	-ris	-ris
*	*	*	*	*ij	*ij	*	*	*	*	*	*
.	.	.	1B-\	Pu-	pu-	1d\	Pu-	pu-	.	.	.
=26-	=26-	=26-	=26-	=26-	=26-	=26-	=26-	=26-	=26-	=26-	=26-
0r	.	.	.	.	.	.	.	.	0r	.	.
!	!	!	!LO:TX:t=P:problem=kreska pseudotaktowa	!	!	!LO:TX:t=P:problem=kreska pseudotaktowa	!	!	!	!	!
.	.	.	2A/	-ra	-ra	2c\	-ra	-ra	.	.	.
.	.	.	2G/	ſin-	ſin-	2B-\	Sin-	sin-	.	.	.
!	!	!	!	!	!	!LO:TX:t=P:problem=kreska pseudotaktowa	!	!	!	!	!
.	.	.	2Fny/	-gu-	-gu-	2A/	-gu-	-gu-	.	.	.
=27-	=27-	=27-	=27-	=27-	=27-	=27-	=27-	=27-	=27-	=27-	=27-
2r	.	.	1E-X	-la-	-la-	2B-\	-la-	-la-	1G	Tu	tu
1G	Tu	tu	.	.	.	2c\	-ris	.	.	.	.
!	!	!	!LO:TX:t=P:problem=kreska pseudotaktowa	!	!	!LO:TX:t=P:problem=kreska pseudotaktowa	!	!	!LO:TX:t=P:problem=kreska pseudotaktowa	!	!
.	.	.	1D	-ris	-ris	1d	.	-ris	1A	es	es
*	*	*	*	*Xij	*Xij	*	*	*	*	*	*
!LO:TX:t=P:problem=kreska pseudotaktowa	!	!	!	!	!	!	!	!	!	!	!
2F\	es	es	.	.	.	.	.	.	.	.	.
=28-	=28-	=28-	=28-	=28-	=28-	=28-	=28-	=28-	=28-	=28-	=28-
*	*	*	*	*	*	*	*	*	*lig	*	*
1G	Vir-	vir-	2r	.	.	2r	.	.	1B-	Vir-	vir-
.	.	.	1G	Tu	tu	1d	Tu	tu	.	.	.
!	!	!	!	!	!	!	!	!	!LO:TX:t=P:problem=kreska pseudotaktowa	!	!
1D	-go	-go	.	.	.	.	.	.	1A	.	.
!	!	!	!	!	!	!LO:TX:t=P:problem=kreska pseudotaktowa	!	!	!	!	!
.	.	.	2F/	es	es	2d\	es	es	.	.	.
*	*	*	*	*	*	*	*	*	*Xlig	*	*
*	*	*	*	*	*	*	*	*	*custos:G	*	*
!	!	!	!	!	!	!	!	!	!LO:LB:g=original	!	!
=29-	=29-	=29-	=29-	=29-	=29-	=29-	=29-	=29-	=29-	=29-	=29-
*	*	*	*	*	*	*lig	*	*	*xywh-#60:1322,1228,5828,906	*	*
!	!	!	!LO:TX:t=P:problem=kreska pseudotaktowa	!	!	!	!	!	!	!	!
1r	.	.	1G	Vir-	vir-	1B-	Vir-	vir-	2G,</	-go	-go
*	*	*	*	*	*	*	*	*	*	*ij	*ij
.	.	.	.	.	.	.	.	.	1g	Tu	tu
!	!	!	!	!	!	!LO:TX:t=P:problem=kreska pseudotaktowa	!	!	!	!	!
2r	.	.	2D,</	-go	-go	1A	.	.	.	.	.
*	*ij	*ij	*	*ij	*ij	*	*	*	*	*	*
!LO:TX:t=P:problem=kreska pseudotaktowa	!	!	!	!	!	!	!	!	!LO:SIC:v:o=2f\	!	!
2D/	Tu	tu	1d\	Tu	tu	.	.	.	2f#i	es	es
*	*	*	*	*	*	*Xlig	*	*	*	*	*
=30-	=30-	=30-	=30-	=30-	=30-	=30-	=30-	=30-	=30-	=30-	=30-
1GG	es	es	.	.	.	2G/	.	-go	1g	Vir-	vir-
.	.	.	2d\	es	es	2.B-\	.	[tu	.	.	.
*	*	*	*lig	*	*	*	*	*	*	*	*
!	!	!	!	!	!	!	!	!	!LO:TX:t=P:problem=kreska pseudotaktowa	!	!
2.BB-/	Vir-	vir-	1B-	Vir-	vir-	.	.	.	0.d	-go	-go
*	*	*	*	*	*	*	*	*	*	*Xij	*Xij
.	.	.	.	.	.	4A/	.	es	.	.	.
.	.	.	.	.	.	1G/	.	vir-	.	.	.
4C/	.	.	.	.	.	.	.	.	.	.	.
=31-	=31-	=31-	=31-	=31-	=31-	=31-	=31-	=31-	=31-	=31-	=31-
!	!	!	!LO:TX:t=P:problem=kreska pseudotaktowa	!	!	!	!	!	!	!	!
1D	.	.	1A	.	.	.	.	.	.	.	.
!	!	!	!	!	!	!LO:SIC:v:o=2F/	!	!	!	!	!
!	!	!	!	!	!	!LO:TX:t=P:problem=kreska pseudotaktowa	!	!	!	!	!
.	.	.	.	.	.	2F#i	-go	.	.	.	.
*	*	*	*Xlig	*	*	*	*	*	*	*	*
!LO:TX:t=P:problem=kreska pseudotaktowa	!	!	!	!	!	!LO:TX:t=P:problem=kreska pseudotaktowa	!	!	!	!	!
1GG	-go	-go	2G,</	-go	-go	0G	.	-go]	.	.	.
*	*Xij	*Xij	*	*Xij	*Xij	*	*	*	*	*	*
!	!	!	!LO:TX:t=P:problem=kreska pseudotaktowa	!	!	!	!	!	!	!	!
.	.	.	2d\	Tu	tu	.	.	.	.	.	.
=32-	=32-	=32-	=32-	=32-	=32-	=32-	=32-	=32-	=32-	=32-	=32-
2r	.	.	2d\	con-	con-	.	.	.	00r	.	.
2G\	Tu	tu	2d\	-ce-	-ce-	.	.	.	.	.	.
2G\	con-	con-	2B-\	-pi-	-pi-	2r	.	.	.	.	.
!LO:TX:t=P:problem=kreska pseudotaktowa	!	!	!LO:TX:t=P:problem=kreska pseudotaktowa	!	!	!	!	!	!	!	!
2G\	-ce-	-ce-	2G/	-ſti	-ſti	2d\	Tu	tu	.	.	.
*custos:F	*	*	*	*	*	*	*	*	*	*	*
!LO:LB:g=original	!	!	!	!	!	!	!	!	!	!	!
=33-	=33-	=33-	=33-	=33-	=33-	=33-	=33-	=33-	=33-	=33-	=33-
*xywh-#310:1145,1677,6111,1041	*	*	*	*	*	*	*	*	*	*	*
2F\	-pi-	-pi-	1A	Je-	Je-	2d\	con-	con-	.	.	.
!	!	!	!	!	!	!LO:TX:t=P:problem=kreska pseudotaktowa	!	!	!	!	!
2D/	-ſti	-ſti	.	.	.	2d\	-ce-	-ce-	.	.	.
!	!	!	!LO:TX:t=P:problem=kreska pseudotaktowa	!	!	!	!	!	!	!	!
1E-X	Je-	Je-	1G	-sum	-sum	2B-\	-pi-	-pi-	.	.	.
.	.	.	.	.	.	2G/	-ſti	-ſti	.	.	.
=34-	=34-	=34-	=34-	=34-	=34-	=34-	=34-	=34-	=34-	=34-	=34-
!LO:TX:t=P:problem=kreska pseudotaktowa	!	!	!	!	!	!LO:TX:t=P:problem=kreska pseudotaktowa	!	!	!	!	!
1D	-ſum	-ſum	2r	.	.	1A	Je-	Je-	2r	.	.
*	*	*	*	*ij	*ij	*	*	*	*	*	*
!	!	!	!LO:TX:t=P:problem=kreska pseudotaktowa	!	!	!	!	!	!LO:TX:t=P:problem=kreska pseudotaktowa	!	!
.	.	.	2F/	Tu	tu	.	.	.	2d\	Tu	tu
*	*	*	*custos:B	*	*	*	*	*	*	*	*
*	*	*	*xywh-#223:1153,1829,6040,958	*	*	*	*	*	*	*	*
!	!	!	!LO:LB:g=original	!	!	!LO:TX:t=P:problem=kreska pseudotaktowa	!	!	!	!	!
2r	.	.	2.B-\	con-	con-	1G	-sum	-sum	2d\	con-	con-
*	*ij	*ij	*	*	*	*	*	*	*	*	*
2G\	Tu	tu	.	.	.	.	.	.	2d\	-ce-	-ce-
.	.	.	4c\	-ce-	.	.	.	.	.	.	.
*	*	*	*	*	*	*custos:d	*	*	*	*	*
!	!	!	!	!	!	!LO:LB:g=original	!	!	!	!	!
=35-	=35-	=35-	=35-	=35-	=35-	=35-	=35-	=35-	=35-	=35-	=35-
*	*	*	*	*	*	*xywh-#146:1579,2529,5901,1042	*	*	*	*	*
2G\	con-	con-	2d\	-pi-	.	2r	.	.	2B-/	-pi-	-pi-
*	*	*	*	*	*	*	*ij	*ij	*	*	*
!LO:TX:t=P:problem=kreska pseudotaktowa	!	!	!LO:TX:t=P:problem=kreska pseudotaktowa	!	!	!LO:TX:t=P:problem=kreska pseudotaktowa	!	!	!LO:TX:t=P:problem=kreska pseudotaktowa	!	!
2G\	-ce-	-ce-	2B-\	-ſti	-ce-	2d\	Tu	tu	2G/	-ſti	-ſti
2F\	-pi-	-pi-	2A/	Je-	-pi-	2d\	con-	con-	1A	Je-	Je-
2D/	-ſti	-ſti	2F/	-sum	-sti	2d\	-ce-	-ce-	.	.	.
*	*	*	*	*Xij	*	*	*	*	*	*	*
=36-	=36-	=36-	=36-	=36-	=36-	=36-	=36-	=36-	=36-	=36-	=36-
1E-X	Je-	Je-	4G/	Je-	Je-	2B-\	-pi-	-pi-	2G,</	-ſum	-ſum
.	.	.	4A/	.	.	.	.	.	.	.	.
!	!	!	!	!	!	!LO:TX:t=P:problem=kreska pseudotaktowa	!	!	!LO:TX:t=P:problem=kreska pseudotaktowa	!	!
.	.	.	4B-\	.	.	2G/	-ſti	-ſti	2g\	ſi-	ſi-
!	!	!	!LO:TX:t=P:problem=kreska pseudotaktowa	!	!	!	!	!	!	!	!
.	.	.	4c\	.	.	.	.	.	.	.	.
!LO:TX:t=P:problem=kreska pseudotaktowa	!	!	!	!	!	!	!	!	!	!	!
1D,<	-ſum	-ſum	1d	.	.	1A	Je-	Je-	2g\	-ne	-ne
*	*Xij	*Xij	*	*	*	*	*	*	*	*	*
!	!	!	!	!	!	!	!	!	!LO:SIC:v:o=2f\	!	!
.	.	.	.	.	.	.	.	.	2f#i	pec-	pec-
=37-	=37-	=37-	=37-	=37-	=37-	=37-	=37-	=37-	=37-	=37-	=37-
1G	ſi-	ſi-	2B-,<\	-Sum	-sum	2G/	-sum	-sum	2.g\	-ca-	-ca-
*	*	*	*	*	*Xij	*	*Xij	*Xij	*	*	*
!	!	!	!LO:TX:t=P:problem=kreska pseudotaktowa	!	!	!LO:TX:t=P:problem=kreska pseudotaktowa	!	!	!	!	!
.	.	.	2B-\	Si-	si-	2d\	ſi-	ſi-	.	.	.
!	!	!	!	!	!	!	!	!	!LO:TX:t=P:problem=kreska pseudotaktowa	!	!
.	.	.	.	.	.	.	.	.	4f\	.	.
!	!	!	!	!	!	!	!	!	!LO:SIC:v:o=2e\	!	!
2C/	-ne	-ne	2G/	-ne	-ne	2c\	-ne	-ne	2e-i	.	.
!	!	!	!LO:TX:t=P:problem=kreska pseudotaktowa	!	!	!	!	!	!	!	!
2D/	pec-	pec-	2F/	pec-	pec-	2.B-\	pec-	pec-	2.d\	.	.
=38-	=38-	=38-	=38-	=38-	=38-	=38-	=38-	=38-	=38-	=38-	=38-
*lig	*	*	*lig	*	*	*	*	*	*	*	*
1E-X	-ca-	-ca-	1G	-ca-	-ca-	.	.	.	.	.	.
!	!	!	!	!	!	!	!	!	!LO:SIC:v:o=8c/L	!	!
.	.	.	.	.	.	4A/	-ca-	.	8c#iL	.	.
!	!	!	!	!	!	!	!	!	!LO:SIC:v:o=8B-/J	!	!
.	.	.	.	.	.	.	.	.	8BiJ	.	.
.	.	.	.	.	.	1G	.	.	2c#X/	.	.
!LO:TX:t=P:problem=kreska pseudotaktowa	!	!	!	!	!	!	!	!	!LO:TX:t=P:problem=kreska pseudotaktowa	!	!
1D	.	.	1A	.	.	.	.	.	0d	-to	-to
!	!	!	!	!	!	!LO:SIC:v:o=2F/	!	!	!	!	!
!	!	!	!	!	!	!LO:TX:t=P:problem=kreska pseudotaktowa	!	!	!	!	!
.	.	.	.	.	.	2F#i	.	-ca-	.	.	.
*Xlig	*	*	*Xlig	*	*	*	*	*	*	*	*
=39-	=39-	=39-	=39-	=39-	=39-	=39-	=39-	=39-	=39-	=39-	=39-
!	!	!	!	!	!	!LO:TX:t=P:problem=kreska pseudotaktowa	!	!	!	!	!
2GG,</	-to	-to	1B-	-to	.	1G	-to	-to	.	.	.
2G\	Tu	tu	.	.	.	.	.	.	.	.	.
!	!	!	!LO:TX:t=P:problem=kreska pseudotaktowa	!	!	!	!	!	!	!	!
2F\	pe-	pe-	1A	.	-to	2r	.	.	1r	.	.
!LO:TX:t=P:problem=kreska pseudotaktowa	!	!	!	!	!	!	!	!	!	!	!
2D/	-pe-	-pe-	.	.	.	2d\	Tu	tu	.	.	.
=40-	=40-	=40-	=40-	=40-	=40-	=40-	=40-	=40-	=40-	=40-	=40-
1F	-ri-	-ri-	1r	.	.	2c\	pe-	pe-	2r	.	.
!	!	!	!	!	!	!LO:TX:t=P:problem=kreska pseudotaktowa	!	!	!LO:TX:t=P:problem=kreska pseudotaktowa	!	!
.	.	.	.	.	.	2A/	-pe-	-pe-	2f\	Tu	tu
*	*	*	*	*	*	*	*	*	*custos:e	*	*
*	*	*	*	*	*	*	*	*	*xywh-#60:1146,1897,6074,854	*	*
!	!	!	!	!	!	!	!	!	!LO:SIC:v:o=2.e\	!	!
!LO:TX:t=P:problem=kreska pseudotaktowa	!	!	!	!	!	!	!	!	!LO:LB:g=original	!	!
1C	-ſti	-ſti	2r	.	.	1c	-ri-	-ri-	2.e-i	pe-	pe-
.	.	.	2c\	Tu	tu	.	.	.	.	.	.
.	.	.	.	.	.	.	.	.	8d\L	.	.
!	!	!	!	!	!	!	!	!	!LO:TX:t=P:problem=kreska pseudotaktowa	!	!
.	.	.	.	.	.	.	.	.	8cny\J	.	.
=41-	=41-	=41-	=41-	=41-	=41-	=41-	=41-	=41-	=41-	=41-	=41-
!	!	!	!	!	!	!LO:TX:t=P:problem=kreska pseudotaktowa	!	!	!	!	!
2r	.	.	2B-\	pe-	pe-	1G	-ſti	-ſti	2d\	.	.
*	*ij	*ij	*	*	*	*	*	*	*	*	*
!	!	!	!LO:TX:t=P:problem=kreska pseudotaktowa	!	!	!	!	!	!LO:SIC:v:o=2e\	!	!
2C/	Tu	tu	2G/	-pe-	-pe-	.	.	.	2e-i	.	-pe-
2BB-/	pe-	pe-	1B-	-ri-	-ri-	1r	.	.	2.d\	.	-ri-
2GG/	-pe-	-pe-	.	.	.	.	.	.	.	.	.
.	.	.	.	.	.	.	.	.	4e\	-pe-	.
=42-	=42-	=42-	=42-	=42-	=42-	=42-	=42-	=42-	=42-	=42-	=42-
!LO:TX:t=P:problem=kreska pseudotaktowa	!	!	!LO:TX:t=P:problem=kreska pseudotaktowa	!	!	!	!	!	!	!	!
1D	-ri-	-ri-	1A,<	-ſti	-ſti	2r	.	.	1f	-ri-	.
.	.	.	.	.	.	1d	Cre-	cre-	.	.	.
*custos:AA	*	*	*	*	*	*	*	*	*	*	*
*xywh-#310:1105,2253,6171,1160	*	*	*	*	*	*	*	*	*	*	*
!LO:TX:t=P:problem=kreska pseudotaktowa	!	!	!	!	!	!	!	!	!LO:TX:t=P:problem=kreska pseudotaktowa	!	!
!LO:LB:g=original	!	!	!	!	!	!	!	!	!	!	!
1AA	-ſti	-ſti	1.A	cre-	cre-	.	.	.	1e	-ſti	-ſti
*	*Xij	*Xij	*	*	*	*	*	*	*	*	*
!	!	!	!	!	!	!LO:TX:t=P:problem=kreska pseudotaktowa	!	!	!	!	!
.	.	.	.	.	.	2d\	-a-	-a-	.	.	.
=43-	=43-	=43-	=43-	=43-	=43-	=43-	=43-	=43-	=43-	=43-	=43-
1.D	cre-	cre-	.	.	.	1d	-to-	-to-	2r	.	.
.	.	.	2A/	-a-	-a-	.	.	.	1f	Cre-	cre-
.	.	.	1A	-to-	-to-	1.d	-rem	-rem	.	.	.
2D/	-a-	-a-	.	.	.	.	.	.	2f\	-a-	-a-
=44-	=44-	=44-	=44-	=44-	=44-	=44-	=44-	=44-	=44-	=44-	=44-
!	!	!	!LO:TX:t=P:problem=kreska pseudotaktowa	!	!	!	!	!	!	!	!
1BB-	-to-	-to-	1B-	-rem	-rem	.	.	.	1f	-to-	-to-
!	!	!	!	!	!	!LO:TX:t=P:problem=kreska pseudotaktowa	!	!	!	!	!
.	.	.	.	.	.	2d\	et	et	.	.	.
*	*	*	*custos:G	*	*	*	*	*	*	*	*
*	*	*	*xywh-#223:1174,2475,6040,1041	*	*	*	*	*	*	*	*
!LO:TX:t=P:problem=kreska pseudotaktowa	!	!	!	!	!	!	!	!	!LO:TX:t=P:problem=kreska pseudotaktowa	!	!
!	!	!	!LO:LB:g=original	!	!	!	!	!	!LO:SIC:v:o=1e	!	!
1C	-re(m)	-rem	1.G	et	et	2c\	Sal-	sal-	1e-i	-rem	-rem
.	.	.	.	.	.	2c\	-ua-	-va-	.	.	.
=45-	=45-	=45-	=45-	=45-	=45-	=45-	=45-	=45-	=45-	=45-	=45-
!	!	!	!	!	!	!LO:TX:t=P:problem=kreska pseudotaktowa	!	!	!	!	!
2GG/	et	et	.	.	.	1B-	-to-	-to-	2d\	et	et
1D	Sal-	sal-	1F	Sal-	sal-	.	.	.	1d	Sal-	sal-
*	*	*	*	*	*	*custos:A	*	*	*	*	*
*	*	*	*	*	*	*xywh-#146:1489,3070,6082,1052	*	*	*	*	*
!	!	!	!	!	!	!LO:LB:g=original	!	!	!	!	!
!	!	!	!	!	!	!LO:TX:t=P:problem=kreska pseudotaktowa	!	!	!	!	!
.	.	.	.	.	.	1A	-rem	-rem	.	.	.
!	!	!	!LO:TX:t=P:problem=kreska pseudotaktowa	!	!	!	!	!	!	!	!
2D/	-ua-	-va-	2F/	-ua-	-va-	.	.	.	2f\	-ua-	-va-
=46-	=46-	=46-	=46-	=46-	=46-	=46-	=46-	=46-	=46-	=46-	=46-
*	*	*	*	*	*	*lig	*	*	*	*	*
!	!	!	!	!	!	!	!	!	!LO:SIC:v:o=2e\	!	!
1C	-to-	-to-	1.G	-to-	-to-	1c	mun-	mun-	2e-i	-to-	-to-
!	!	!	!	!	!	!	!	!	!LO:TX:t=P:problem=kreska pseudotaktowa	!	!
.	.	.	.	.	.	.	.	.	2c/	-re(m)	-rem
!LO:TX:t=P:problem=kreska pseudotaktowa	!	!	!	!	!	!	!	!	!	!	!
1GG	-re(m)	-rem	.	.	.	2.B-\	.	.	1d	mun-	mun-
!	!	!	!LO:TX:t=P:problem=kreska pseudotaktowa	!	!	!	!	!	!	!	!
.	.	.	2G/	-rem	-rem	.	.	.	.	.	.
*	*	*	*	*	*	*Xlig	*	*	*	*	*
.	.	.	.	.	.	8A/L	.	.	.	.	.
!	!	!	!	!	!	!LO:TX:t=P:problem=kreska pseudotaktowa	!	!	!	!	!
.	.	.	.	.	.	8G/J	.	.	.	.	.
=47-	=47-	=47-	=47-	=47-	=47-	=47-	=47-	=47-	=47-	=47-	=47-
!	!	!	!	!	!	!	!	!	!LO:TX:t=P:problem=kreska pseudotaktowa	!	!
1D	mun-	mun-	1F	mun-	mun-	1A	.	.	0d	-di	-di
2GG/	-di	-di	2G/	-di	-di	2G,</	-di	-di	.	.	.
!LO:TX:t=P:problem=kreska pseudotaktowa	!	!	!LO:TX:t=P:problem=kreska pseudotaktowa	!	!	!LO:TX:t=P:problem=kreska pseudotaktowa	!	!	!	!	!
2GG/	in	in	2G/	in	in	2B-\	in	in	.	.	.
=48-	=48-	=48-	=48-	=48-	=48-	=48-	=48-	=48-	=48-	=48-	=48-
2.D/	quo	quo	2.F/	quo	quo	2A/	quo	quo	2r	.	.
!	!	!	!	!	!	!LO:TX:t=P:problem=kreska pseudotaktowa	!	!	!	!	!
.	.	.	.	.	.	2d\	no(n)	non	2f\	in	in
4Eny\	.	.	4G/	.	.	.	.	.	.	.	.
4F\	.	.	4A/	.	.	2.c\	du-	du-	2f\	quo	quo
4G\	.	.	4B-\	non	.	.	.	.	.	.	.
!	!	!	!	!	!	!	!	!	!LO:TX:t=P:problem=kreska pseudotaktowa	!	!
1A\	.	.	1c\	du-	.	.	.	.	2e\	.	non
.	.	.	.	.	.	4c\	-bi-	-bi-	.	.	.
=49-	=49-	=49-	=49-	=49-	=49-	=49-	=49-	=49-	=49-	=49-	=49-
.	.	.	.	.	.	2A,</	-to	-to	2.f\	non	du-
*	*	*	*	*	*	*	*ij	*ij	*	*	*
!LO:TX:t=P:problem=kreska pseudotaktowa	!	!	!LO:TX:t=P:problem=kreska pseudotaktowa	!	!	!LO:TX:t=P:problem=kreska pseudotaktowa	!	!	!	!	!
2F\	non	non	2A/	-bi-	non	2A/	in	in	.	.	.
.	.	.	.	.	.	.	.	.	4e\	.	.
2.B-\	du-	du-	2.d\	.	du-	2B-\	quo	quo	4d\	du-	.
!	!	!	!	!	!	!	!	!	!LO:SIC:v:o=4c/	!	!
.	.	.	.	.	.	.	.	.	4B-	.	.
.	.	.	.	.	.	1d\	no(n)	non	1f\	-bi-	.
4A\	-bi-	.	4c\	-ta-	.	.	.	.	.	.	.
=50-	=50-	=50-	=50-	=50-	=50-	=50-	=50-	=50-	=50-	=50-	=50-
1G	-ta-	.	4B-\	.	.	.	.	.	.	.	.
.	.	.	4A/	.	.	.	.	.	.	.	.
!	!	!	!	!	!	!	!	!	!LO:TX:t=P:problem=kreska pseudotaktowa	!	!
.	.	.	1B-	.	.	4c\	.	.	2e\	-ta-	-bi-
!	!	!	!	!	!	!LO:TX:t=P:problem=kreska pseudotaktowa	!	!	!	!	!
.	.	.	.	.	.	4B-\	.	.	.	.	.
*	*	*	*	*	*	*	*	*	*custos:f	*	*
*	*	*	*	*	*	*	*	*	*xywh-#60:1252,2504,5995,898	*	*
!LO:TX:t=P:problem=kreska pseudotaktowa	!	!	!	!	!	!	!	!	!LO:TX:t=P:problem=kreska pseudotaktowa	!	!
!	!	!	!	!	!	!	!	!	!LO:LB:g=original	!	!
1F	.	-bi-	.	.	.	2c\	du-	du-	0f	-mus	-[to]
!	!	!	!LO:TX:t=P:problem=kreska pseudotaktowa	!	!	!	!	!	!	!	!
.	.	.	2A/	.	.	2c\	-bi-	-bi-	.	.	.
=51-	=51-	=51-	=51-	=51-	=51-	=51-	=51-	=51-	=51-	=51-	=51-
2BB-,</	-mus,	-[to]	2B-\	.	.	2d,<\	-to	-to	.	.	.
*	*	*	*	*	*	*	*Xij	*Xij	*	*	*
!	!	!	!LO:TX:t=P:problem=po 2G przekreślony znak cezury	!	!	!LO:TX:t=P:problem=kreska pseudotaktowa	!	!	!	!	!
2.B-\	li-	li-	2G/	.	-bi-	2B-\	li-	li-	.	.	.
!	!	!	!LO:TX:t=P:problem=kreska pseudotaktowa	!	!	!	!	!	!	!	!
.	.	.	1F	-mus	-[to]	2c\	-be-	-be-	2r	.	.
4B-\	-be-	-be-	.	.	.	.	.	.	.	.	.
!LO:TX:t=P:problem=kreska pseudotaktowa	!	!	!	!	!	!	!	!	!	!	!
2A\	-ra	-ra	.	.	.	2c\	-ra	-ra	2.f\	Li-	li-
=52-	=52-	=52-	=52-	=52-	=52-	=52-	=52-	=52-	=52-	=52-	=52-
2B-\	nos	nos	2r	.	.	2d\	nos	nos	.	.	.
.	.	.	.	.	.	.	.	.	4f\	-be-	-be-
!	!	!	!	!	!	!	!	!	!LO:SIC:v:o=2e\	!	!
!	!	!	!	!	!	!LO:TX:t=P:problem=kreska pseudotaktowa	!	!	!LO:TX:t=P:problem=kreska pseudotaktowa	!	!
2G\	ab	ab	2.B-\	Li-	li-	2B-\	ab	ab	2e-i	-ra	-ra
2F\	om-	om-	.	.	.	2.c\	om-	om-	2f\	nos	nos
.	.	.	4B-\	-be-	-be-	.	.	.	.	.	.
*custos:G	*	*	*	*	*	*	*	*	*	*	*
!LO:TX:t=P:problem=kreska pseudotaktowa	!	!	!LO:TX:t=P:problem=kreska pseudotaktowa	!	!	!	!	!	!	!	!
2F\	-ni	-ni	2A/	-ra	-ra	.	.	.	2f\	.	ab
.	.	.	.	.	.	4c\	-ni	-ni	.	.	.
!LO:LB:g=original	!	!	!	!	!	!	!	!	!	!	!
=53-	=53-	=53-	=53-	=53-	=53-	=53-	=53-	=53-	=53-	=53-	=53-
*xywh-#310:1205,2957,6052,1111	*	*	*	*	*	*	*	*	*	*	*
(>2G\	ma-	ma-	2B-\	nos	nos	1G	ma-	ma-	2d\	ab	om-
!	!	!	!	!	!	!	!	!	!LO:TX:t=P:problem=kreska pseudotaktowa	!	!
2E-X\)	.	.	2G/	ab	ab	.	.	.	2c/	om-	-ni
!LO:TX:t=P:problem=kreska pseudotaktowa	!	!	!	!	!	!LO:TX:t=P:problem=kreska pseudotaktowa	!	!	!	!	!
1D	-lo	-lo	2F/	om-	om-	1A	-lo	-lo	2.d\	-ni	ma-
!	!	!	!LO:TX:t=P:problem=kreska pseudotaktowa	!	!	!	!	!	!	!	!
.	.	.	2F/	-ni	-ni	.	.	.	.	.	.
.	.	.	.	.	.	.	.	.	4c/	.	.
*	*	*	*custos:G	*	*	*	*	*	*	*	*
!	!	!	!LO:LB:g=original	!	!	!	!	!	!	!	!
=54-	=54-	=54-	=54-	=54-	=54-	=54-	=54-	=54-	=54-	=54-	=54-
*	*	*	*xywh-#223:1206,3204,5968,874	*	*	*	*	*	*	*	*
0r	.	.	2G/	ma-	ma-	2r	.	.	2B-/	ma-	.
*	*	*	*	*	*	*	*ij	*ij	*	*	*
!	!	!	!	!	!	!	!	!	!LO:TX:t=P:problem=kreska pseudotaktowa	!	!
.	.	.	2E-X/	.	.	2.B-\	li-	li-	2G/	.	.
!	!	!	!LO:TX:t=P:problem=kreska pseudotaktowa	!	!	!	!	!	!	!	!
.	.	.	1D	-lo	-lo	.	.	.	2d,<\	-lo	-lo
.	.	.	.	.	.	4B-\	-be-	-be-	.	.	.
*	*	*	*	*	*	*custos:A	*	*	*	*ij	*ij
*	*	*	*	*	*	*xywh-#146:1569,3862,5881,951	*	*	*	*	*
!	!	!	!	!	!	!LO:TX:t=P:problem=kreska pseudotaktowa	!	!	!	!	!
!	!	!	!	!	!	!LO:LB:g=original	!	!	!	!	!
.	.	.	.	.	.	2A/	-ra	-ra	2.f\	Li-	li-
=55-	=55-	=55-	=55-	=55-	=55-	=55-	=55-	=55-	=55-	=55-	=55-
2r	.	.	1r	.	.	2B-\	nos	nos	.	.	.
.	.	.	.	.	.	.	.	.	4f\	-be-	-be-
!	!	!	!	!	!	!	!	!	!LO:SIC:v:o=2e\	!	!
!	!	!	!	!	!	!	!	!	!LO:TX:t=P:problem=kreska pseudotaktowa	!	!
2.B-\	li-	li-	.	.	.	2G/	ab	ab	2e-i	-ra	-ra
.	.	.	1D	ab	ab	2F/	om-	om-	2.f\	nos	nos
4B-\	-be-	-be-	.	.	.	.	.	.	.	.	.
!LO:TX:t=P:problem=kreska pseudotaktowa	!	!	!	!	!	!LO:TX:t=P:problem=kreska pseudotaktowa	!	!	!	!	!
2A\	-ra	-ra	.	.	.	2F/	-ni	-ni	.	.	.
!	!	!	!	!	!	!	!	!	!LO:SIC:v:o=4e\	!	!
.	.	.	.	.	.	.	.	.	4e-i	ab	.
=56-	=56-	=56-	=56-	=56-	=56-	=56-	=56-	=56-	=56-	=56-	=56-
!	!	!	!LO:TX:t=P:problem=kreska pseudotaktowa	!	!	!	!	!	!	!	!
2B-\	nos	nos	1G	om-	om-	2G/	ma-	ma-	2d\	om-	.
!	!	!	!	!	!	!LO:TX:t=P:problem=kreska pseudotaktowa	!	!	!LO:TX:t=P:problem=kreska pseudotaktowa	!	!
2G\	ab	ab	.	.	.	2E-X/	-lo	.	2c/	-ni	ab
*	*	*	*	*	*	*	*Xij	*	*	*	*
2F\	om-	om-	2A,</	-ni	-ni	2D,</	.	-lo	2d\	ma-	om-
*	*	*	*	*	*	*	*	*Xij	*	*	*
!LO:TX:t=P:problem=kreska pseudotaktowa	!	!	!	!	!	!	!	!	!	!	!
2D/	-ni	-ni	2.B-\	ma-	ma-	2F/	ab	ab	2d\	.	-ni
=57-	=57-	=57-	=57-	=57-	=57-	=57-	=57-	=57-	=57-	=57-	=57-
*lig	*	*	*	*	*	*	*	*	*	*	*
1E-X	ma-	ma-	.	.	.	2G/	om-	om-	2B-/	.	ma-
.	.	.	4A/	.	.	.	.	.	.	.	.
!	!	!	!	!	!	!LO:TX:t=P:problem=kreska pseudotaktowa	!	!	!LO:TX:t=P:problem=kreska pseudotaktowa	!	!
.	.	.	1G	.	.	2G/	-ni	-ni	2c,</	-lo	.
*	*	*	*	*	*	*	*	*	*	*Xij	*
1D	.	.	.	.	.	1A	ma-	ma-	0d	Et	-lo
!	!	!	!LO:SIC:v:o=2F/	!	!	!	!	!	!	!	!
!	!	!	!LO:TX:t=P:problem=kreska pseudotaktowa	!	!	!	!	!	!	!	!
.	.	.	2F#i	.	.	.	.	.	.	.	.
*Xlig	*	*	*	*	*	*	*	*	*	*	*Xij
=58-	=58-	=58-	=58-	=58-	=58-	=58-	=58-	=58-	=58-	=58-	=58-
!LO:TX:t=P:problem=kreska pseudotaktowa	!	!	!LO:TX:t=P:problem=kreska pseudotaktowa	!	!	!LO:N:acc=#	!	!	!	!	!
1GG,<	-lo	-lo	1G,<	-lo	-lo	1Bn,<	-lo	-lo	.	.	.
!	!	!	!	!	!	!	!	!	!LO:SIC:v:o=1e	!	!
!	!	!	!	!	!	!LO:TX:t=P:problem=kreska pseudotaktowa	!	!	!LO:TX:t=P:problem=kreska pseudotaktowa	!	!
1C	Et	et	1G	Et	et	1c	Et	et	1e-i	o-	et
=59-	=59-	=59-	=59-	=59-	=59-	=59-	=59-	=59-	=59-	=59-	=59-
0BB-	o-	o-	0B-	o-	o-	0d	o-	o-	0f	-ra	o-
*	*	*	*	*	*	*	*	*	*	*ij	*ij
=60-	=60-	=60-	=60-	=60-	=60-	=60-	=60-	=60-	=60-	=60-	=60-
!	!	!	!LO:TX:t=P:problem=kreska pseudotaktowa	!	!	!	!	!	!LO:SIC:v:o=1.e	!	!
1.C	-ra	-ra	0.G	-ra	-ra	0c	-ra	-ra	1.e-i	Et	-ra
!LO:TX:t=P:problem=kreska pseudotaktowa	!	!	!	!	!	!	!	!	!LO:TX:t=P:problem=kreska pseudotaktowa	!	!
2C/	et	et	.	.	.	.	.	.	2c/	.	et
*	*	*	*	*	*	*	*	*	*custos:d	*	*
!	!	!	!	!	!	!	!	!	!LO:LB:g=original	!	!
=61-	=61-	=61-	=61-	=61-	=61-	=61-	=61-	=61-	=61-	=61-	=61-
*lig	*	*	*	*	*	*	*	*	*xywh-#60:1225,3103,5995,968	*	*
1GG	o-	o-	.	.	.	2.B-y\	pro	pro	0d	o-	o-
!	!	!	!	!	!	!LO:TX:t=P:problem=kreska pseudotaktowa	!	!	!	!	!
.	.	.	.	.	.	4B-\	pec-	pec-	.	.	.
1D	.	.	2r	.	.	2A/	-ca-	-ca-	.	.	.
.	.	.	2A/	pro	pro	2F/	-tis	-tis	.	.	.
*Xlig	*	*	*	*	*	*	*	*	*	*	*
=62-	=62-	=62-	=62-	=62-	=62-	=62-	=62-	=62-	=62-	=62-	=62-
!LO:TX:t=P:problem=kreska pseudotaktowa	!	!	!	!	!	!	!	!	!LO:TX:t=P:problem=kreska pseudotaktowa	!	!
1GG	-ra	-ra	2B-\	pec-	pec-	4G/	no-	no-	0d	ra	ra
*	*	*	*	*	*	*	*	*	*	*Xij	*Xij
.	.	.	.	.	.	4A/	.	.	.	.	.
.	.	.	1G	-ca-	-ca-	4B-\	.	.	.	.	.
!	!	!	!	!	!	!LO:TX:t=P:problem=kreska pseudotaktowa	!	!	!	!	!
.	.	.	.	.	.	4G/	.	.	.	.	.
2r	.	.	.	.	.	1A	.	.	.	.	.
!	!	!	!LO:TX:t=P:problem=kreska pseudotaktowa	!	!	!	!	!	!	!	!
2D/	pro	pro	2F/	-tis	-tis	.	.	.	.	.	.
=63-	=63-	=63-	=63-	=63-	=63-	=63-	=63-	=63-	=63-	=63-	=63-
!	!	!	!	!	!	!LO:TX:t=P:problem=kreska pseudotaktowa	!	!	!	!	!
2E-X\	pec-	pec-	2.G/	no-	no-	0G	-ſtris	-ſtris	1r	.	.
1C	-ca-	-ca-	.	.	.	.	.	.	.	.	.
.	.	.	4F/	.	.	.	.	.	.	.	.
!	!	!	!LO:SIC:v:o=2Eny/	!	!	!	!	!	!	!	!
.	.	.	2E-i	.	.	.	.	.	2r	.	.
!LO:TX:t=P:problem=kreska pseudotaktowa	!	!	!LO:TX:t=P:problem=kreska pseudotaktowa	!	!	!	!	!	!	!	!
2BB-/	-tis	-tis	2D/	-ſtris	-ſtris	.	.	.	2d\	pro	pro
=64-	=64-	=64-	=64-	=64-	=64-	=64-	=64-	=64-	=64-	=64-	=64-
!	!	!	!	!	!	!LO:TX:t=P:problem=kreska pseudotaktowa	!	!	!	!	!
1C	no-	no-	2r	.	.	1r	.	.	2e-X\	pec-	pec-
*	*	*	*	*ij	*ij	*	*	*	*	*	*
.	.	.	1G	pro	pro	.	.	.	1c	-ca-	-ca-
*	*	*	*	*	*	*custos:d	*	*	*	*	*
*	*	*	*	*	*	*xywh-#146:7396,548,6082,1052	*	*	*	*	*
!LO:TX:t=P:problem=kreska pseudotaktowa	!	!	!	!	!	!LO:PB:g=original	!	!	!	!	!
1GG	-ſtris	-ſtris	.	.	.	2r	.	.	.	.	.
!	!	!	!LO:TX:t=P:problem=kreska pseudotaktowa	!	!	!LO:TX:t=P:problem=kreska pseudotaktowa	!	!	!LO:TX:t=P:problem=kreska pseudotaktowa	!	!
.	.	.	2G/	pec-	pec-	2d\	pro	pro	2B-/	-tis	-tis
*custos:C	*	*	*	*	*	*	*	*	*	*	*
!LO:LB:g=original	!	!	!	!	!	!	!	!	!	!	!
=65-	=65-	=65-	=65-	=65-	=65-	=65-	=65-	=65-	=65-	=65-	=65-
*xywh-#310:1066,3602,6270,1111	*	*	*	*	*	*	*	*	*	*	*
!	!	!	!	!	!	!LO:SIC:v:o=2e\	!	!	!	!	!
1C	et	et	2G/	-ca-	-ca-	2e-i	pec-	pec-	1c	no-	no-
!	!	!	!LO:SIC:v:o=2E/	!	!	!	!	!	!	!	!
.	.	.	2E-i	-tis	-tis	1c	-ca-	-ca-	.	.	.
!	!	!	!LO:TX:t=P:problem=kreska pseudotaktowa	!	!	!	!	!	!	!	!
2C/	o-	o-	1G	no-	no-	.	.	.	2G/	-ſtris	-ſtris
*	*	*	*	*	*	*	*	*	*	*ij	*ij
!LO:TX:t=P:problem=kreska pseudotaktowa	!	!	!	!	!	!	!	!	!LO:TX:t=P:problem=kreska pseudotaktowa	!	!
2GG/	-ra	-ra	.	.	.	2B-\	-tis	-tis	2d\	pro	pro
*	*	*	*custos:G	*	*	*	*	*	*	*	*
!	!	!	!LO:LB:g=original	!	!	!	!	!	!	!	!
=66-	=66-	=66-	=66-	=66-	=66-	=66-	=66-	=66-	=66-	=66-	=66-
*	*	*	*xywh-#223:1164,3808,6072,968	*	*	*lig	*	*	*	*	*
!	!	!	!LO:TX:t=P:problem=kreska pseudotaktowa	!	!	!	!	!	!	!	!
2.C/	pro	pro	1G	-ſtris	-ſtris	1c	no-	no-	2e-X\	pec-	pec-
*	*	*	*	*Xij	*Xij	*	*	*	*	*	*
.	.	.	.	.	.	.	.	.	1c	-ca-	-ca-
4D/	.	.	.	.	.	.	.	.	.	.	.
!LO:SIC:v:o=4Eny\	!	!	!	!	!	!	!	!	!	!	!
4E-i	.	.	1r	.	.	1G	.	.	.	.	.
4F\	.	.	.	.	.	.	.	.	.	.	.
!	!	!	!	!	!	!	!	!	!LO:TX:t=P:problem=kreska pseudotaktowa	!	!
1G\	.	.	.	.	.	.	.	.	2B-/	-tis	-tis
*	*	*	*	*	*	*Xlig	*	*	*	*	*
=67-	=67-	=67-	=67-	=67-	=67-	=67-	=67-	=67-	=67-	=67-	=67-
!	!	!	!	!	!	!LO:TX:t=P:problem=kreska pseudotaktowa	!	!	!	!	!
.	.	.	2r	.	.	1D	-ſtris	-ſtris	1A	no-	no-
!LO:SIC:v:o=2F\	!	!	!	!	!	!	!	!	!	!	!
!LO:TX:t=P:problem=kreska pseudotaktowa	!	!	!LO:TX:t=P:problem=kreska pseudotaktowa	!	!	!	!	!	!	!	!
2F#i	pec-	pec-	2A/	pro	pro	.	.	.	.	.	.
2G\	-ca-	-ca-	2B-\	pec-	pec-	1r	.	.	2G/	-ſtris	-ſtris
2G\	-tis	-tis	1G/	-ca-	-ca-	.	.	.	1d\	pro	pro
=68-	=68-	=68-	=68-	=68-	=68-	=68-	=68-	=68-	=68-	=68-	=68-
1D	no-	no-	.	.	.	2r	.	.	.	.	.
*	*	*	*	*	*	*	*ij	*ij	*	*	*
!	!	!	!LO:TX:t=P:problem=kreska pseudotaktowa	!	!	!LO:TX:t=P:problem=kreska pseudotaktowa	!	!	!LO:TX:t=P:problem=kreska pseudotaktowa	!	!
.	.	.	2F/	-tis	-tis	2A/	pro	pro	2d\	pec-	pec-
!LO:TX:t=P:problem=kreska pseudotaktowa	!	!	!	!	!	!	!	!	!	!	!
1GG	-ſtris	-ſtris	1G	no-	no-	2B-\	pec-	pec-	2d\	-ca-	-ca-
.	.	.	.	.	.	1G/	-ca-	-ca-	2B-/	-tis	-tis
=69-	=69-	=69-	=69-	=69-	=69-	=69-	=69-	=69-	=69-	=69-	=69-
2r	.	.	2D/	-ſtris	-ſtris	.	.	.	1A	no-	no-
*	*	*	*	*ij	*ij	*	*	*	*	*	*
!	!	!	!LO:TX:t=P:problem=kreska pseudotaktowa	!	!	!LO:TX:t=P:problem=kreska pseudotaktowa	!	!	!	!	!
2D/	pro	pro	2d\	pro	pro	2F/	-tis	-tis	.	.	.
!	!	!	!	!	!	!	!	!	!LO:TX:t=P:problem=kreska pseudotaktowa	!	!
2E-X\	pec-	pec-	2B-\	pec-	pec-	2.G/	no-	no-	1G	-ſtris	-ſtris
*	*	*	*	*	*	*	*	*	*	*Xij	*Xij
1C/	-ca-	-ca-	1c\	-ca-	-ca-	.	.	.	.	.	.
.	.	.	.	.	.	4F/	.	.	.	.	.
=70-	=70-	=70-	=70-	=70-	=70-	=70-	=70-	=70-	=70-	=70-	=70-
!	!	!	!	!	!	!LO:SIC:v:o=2Eny/	!	!	!	!	!
.	.	.	.	.	.	2E-i	.	.	2r	.	.
!LO:TX:t=P:problem=kreska pseudotaktowa	!	!	!LO:TX:t=P:problem=kreska pseudotaktowa	!	!	!	!	!	!	!	!
2BB-/	-tis	-tis	2d\	-tis	-tis	2D/	.	.	2d\	pro	pro
*lig	*	*	*	*	*	*	*	*	*	*	*
!	!	!	!	!	!	!LO:TX:t=P:problem=kreska pseudotaktowa	!	!	!	!	!
1C	no-	no-	1c	no-	no-	1G	-ſtris	-ſtris	2e-X\	pec-	pec-
*	*	*	*	*	*	*	*Xij	*Xij	*	*	*
.	.	.	.	.	.	.	.	.	1c\	-ca-	-ca-
=71-	=71-	=71-	=71-	=71-	=71-	=71-	=71-	=71-	=71-	=71-	=71-
1GG	.	.	2d\	-ſtris	-ſtris	2r	.	.	.	.	.
!	!	!	!	!	!	!	!	!	!LO:TX:t=P:problem=kreska pseudotaktowa	!	!
.	.	.	1G	pro	pro	2d\	pro	pro	2B-/	-tis	-tis
*Xlig	*	*	*	*	*	*	*	*	*custos:c	*	*
*	*	*	*	*	*	*	*	*	*xywh-#60:1146,3746,6136,1065	*	*
!LO:TX:t=P:problem=kreska pseudotaktowa	!	!	!	!	!	!LO:SIC:v:o=2e\	!	!	!LO:LB:g=original	!	!
1C	-ſtris	-ſtris	.	.	.	2e-i	pec-	pec-	1c	no-	no-
!	!	!	!LO:TX:t=P:problem=kreska pseudotaktowa	!	!	!	!	!	!	!	!
.	.	.	2G/	pec-	pec-	1c\	-ca-	-ca-	.	.	.
=72-	=72-	=72-	=72-	=72-	=72-	=72-	=72-	=72-	=72-	=72-	=72-
!	!	!	!	!	!	!	!	!	!LO:TX:t=P:problem=kreska pseudotaktowa	!	!
1r	.	.	1G	-ca-	-ca-	.	.	.	1d	-ſtris	-ſtris
!	!	!	!	!	!	!LO:TX:t=P:problem=kreska pseudotaktowa	!	!	!	!	!
.	.	.	.	.	.	2B-\	-tis	-tis	.	.	.
*	*ij	*ij	*	*	*	*	*	*	*	*	*
!	!	!	!LO:TX:t=P:problem=kreska pseudotaktowa	!	!	!	!	!	!	!	!
1D	pro	pro	1F#X	-tis	-tis	1A	no-	no-	2r	.	.
*	*	*	*	*	*	*	*	*	*	*ij	*ij
.	.	.	.	.	.	.	.	.	2d\	pro	pro
=73-	=73-	=73-	=73-	=73-	=73-	=73-	=73-	=73-	=73-	=73-	=73-
2E-X\	pec-	pec-	0G	no-	no-	2G/	-ſtris	-ſtris	2B-/	pec-	pec-
*	*	*	*	*	*	*	*ij	*ij	*	*	*
1C	-ca-	-ca-	.	.	.	1e-X	pro	pro	1c	-ca-	-ca-
!LO:TX:t=P:problem=kreska pseudotaktowa	!	!	!	!	!	!LO:TX:t=P:problem=kreska pseudotaktowa	!	!	!LO:TX:t=P:problem=kreska pseudotaktowa	!	!
2BB-/	-tis	-tis	.	.	.	2d\	pec-	pec-	2d\	-tis	-tis
=74-	=74-	=74-	=74-	=74-	=74-	=74-	=74-	=74-	=74-	=74-	=74-
0C	no-	no-	[0Gl	-ſtris	-ſtris.	2c\	-ca-	-ca-	0e-X	no-	no-
.	.	.	.	.	.	2G/	-tis	-tis	.	.	.
.	.	.	.	.	.	0c	no-	no-	.	.	.
=75-	=75-	=75-	=75-	=75-	=75-	=75-	=75-	=75-	=75-	=75-	=75-
!LO:SIC:o=0GGl	!	!	!LO:SIC:o=0G]	!	!	!	!	!	!LO:SIC:o=0dl	!	!
0GG;	-ſtris	-ſtris.	0G;]	.	.	.	.	.	0d;	-ſtris	-ſtris.
*	*Xij	*Xij	*	*Xij	*Xij	*	*	*	*	*Xij	*Xij
!	!	!	!	!	!	!LO:SIC:o=1Bnl	!	!	!	!	!
!	!	!	!	!	!	!LO:N:acc=#	!	!	!	!	!
.	.	.	.	.	.	1B;	-ſtris	-ſtris.	.	.	.
*	*	*	*	*	*	*	*Xij	*Xij	*	*	*
==	==	==	==	==	==	==	==	==	==	==	==
*-	*-	*-	*-	*-	*-	*-	*-	*-	*-	*-	*-
!!!system-decoration: [*]
!!LO:MO:ori
!!!RDF**kern: > = above
!!!RDF**kern: < = below
!!!RDF**kern: l = terminal long
!!LO:MO:mod
!! !!!RDF**kern: i = editorial accidental
!!LO:MO:end
!!!filter-modern: shed -e "s/^(\d+[\/\\]right)/$1yy/I" | shed -e "s/LO:N:/LO:n:$1/L" | shed -k -e "s/,</$1/D" | shed -e "s/TX(.*):t=P:/tx$1:t=P:/LG" | shed -e "s/^custos:/Xcustos:/I" | sic -sq | modori -m | autostem -r | tie -s | humtr -p | shed -e "s/-//B"
!!!ENC: Katarzyna Serwa
!!!END: 2021-03-03
!!!EED: Mateusz Mrugas
!!!EEV: 2021-03-18
!!!ENC-modern: Andrzej Kubiczek
!!!END-modern: 2023-07-29
!!!ENC-iiif: Bartosz Żurakowski
!!!END-iiif: 2022-09-1
